X: 140628
T: Nolan's
S: Luke O'Malley vol 1
Z: B.Black
M: 6/8
L: 1/8
R: jig
K: D
A/G/|FAF DFA | ded BGB | AFA dAF | A,CE GFE |
FAF DFA | ded BGB | AFA dAF |1 GEC D2 :|2\
GEC D2 ||
g|fef dfa | gfg ecA | dcd fdB | cec A2 A/G/ |
FAF DFA | ded BGB | AFA dAF |1 GEC D2 :|2\
GEC D2 z ||
